icon/lg/nasm.svg

<?xml version="1.0" encoding="UTF-8"?>
<svg viewBox="0 0 256 256" version="1.1" xmlns="http://www.w3.org/2000/svg" preserveAspectRatio="xMidYMid" height="1em" width="1em">
  <g>
    <path d="M230.449304,0 C216.332955,0 204.893363,11.4430892 204.893363,25.5541927 C204.893363,30.51607 206.330524,35.1317698 208.778244,39.0516179 L192.507902,55.3219598 C172.067695,36.8241931 144.964445,25.5541927 115.224652,25.5541927 C51.5909358,25.5541927 0,77.1451285 0,140.778845 C0,204.416058 51.5909358,256.001748 115.224652,256.001748 C178.860117,256.001748 230.449304,204.416058 230.449304,140.778845 C230.449304,111.0408 219.177555,83.935802 200.679789,63.4938466 L216.951879,47.2235047 C220.871727,49.6694759 225.489175,51.1083854 230.451052,51.1083854 C244.560408,51.1083854 256,39.6670446 256,25.555941 C256,11.4448375 244.560408,0 230.449304,0 Z" fill="#113B6A"/>
    <path d="M61.574135,160.175274 C61.3958012,160.507465 60.9499665,160.671812 60.2348827,160.671812 L51.8164757,160.671812 C50.692273,160.671812 50.1327943,160.135062 50.1327943,159.065059 C50.1327943,156.818984 50.1374566,154.585343 50.1483353,152.363099 L50.16951,149.03815 C50.1957356,145.723238 50.2062258,142.378604 50.2062258,139.011241 C50.2062258,136.867738 49.8355712,135.350152 49.0960102,134.458483 C48.3564492,133.566814 47.1675568,133.119231 45.5380749,133.119231 C44.3142151,133.119231 42.985453,133.412957 41.5587822,133.998661 C40.1303629,134.586114 38.9572059,135.033697 38.0375627,135.339662 L38.0375627,159.066807 C38.0375627,159.474177 37.9466474,159.843084 37.7683135,160.177023 C37.5899796,160.509213 37.144145,160.67356 36.4290612,160.67356 L28.0875825,160.67356 C27.4249498,160.67356 26.9773668,160.53369 26.7483302,160.252203 C26.5175452,159.974212 26.4039011,159.575583 26.4039011,159.066807 L26.4039011,124.622147 C26.4039011,124.113371 26.5175452,123.704252 26.7483302,123.398287 C26.9773668,123.092322 27.4249498,122.938466 28.0875825,122.938466 L36.4290612,122.938466 C37.1423966,122.938466 37.5899796,123.120296 37.7683135,123.475215 C37.9483957,123.831883 38.0375627,124.214776 38.0375627,124.622147 L38.0375627,126.459685 C38.0701989,126.459685 38.0989499,126.465901 38.1212255,126.477298 L38.1494584,126.498149 C38.1774324,126.524375 38.2141481,126.534865 38.2648509,126.534865 C39.9502807,125.260302 41.9137015,124.227015 44.15861,123.436751 C46.4017702,122.646488 48.4438677,122.249607 50.2814058,122.249607 C52.986136,122.249607 55.1174004,122.69719 56.6717023,123.58886 C58.229501,124.484026 59.3886711,125.655434 60.156206,127.110079 C60.9219926,128.564724 61.3923044,130.185464 61.5706383,131.972299 C61.7507205,133.757386 61.8403001,135.542473 61.8403001,137.32756 L61.8403001,159.066807 C61.8451326,159.474177 61.7542173,159.843084 61.574135,160.175274 Z M91.08664,156.078841 C90.0655912,156.996735 88.9676142,157.788748 87.7962055,158.45138 C86.6213001,159.114013 85.4236658,159.663001 84.1980577,160.096598 C82.9724495,160.530194 81.7730669,160.83441 80.5999098,161.014492 C79.4250044,161.191078 78.3550013,161.281993 77.3864037,161.281993 C75.1397468,161.281993 73.3161957,160.962041 71.9122536,160.323886 C70.5083116,159.687479 69.4243215,158.857002 68.6602833,157.835954 C67.8944967,156.816653 67.3699854,155.629509 67.0919944,154.27627 C66.8559643,153.151485 66.7207083,151.980562 66.6821794,150.763501 L66.6706369,150.027728 C66.6181858,147.681414 66.9381377,145.693516 67.6287443,144.058789 C68.3176025,142.42581 69.2984388,141.111035 70.5747497,140.116212 C71.8493123,139.123137 73.407111,138.406305 75.244649,137.972709 C77.0804387,137.539113 79.1225362,137.322315 81.3674448,137.322315 L90.1704935,137.322315 L90.1704935,136.098455 C90.1704935,135.281966 90.0778298,134.593108 89.9029927,134.03188 C89.7211621,133.470653 89.3924683,133.010832 88.9081695,132.654164 C88.4221224,132.297496 87.7472511,132.029995 86.880059,131.849913 C86.1197361,131.693871 85.1465763,131.604759 83.9582372,131.584919 L83.4357678,131.580664 C83.0979825,131.580664 82.7098441,131.590735 82.272108,131.609743 L78.6906886,131.813197 L78.6906886,131.813197 C77.7710453,131.8639 76.8514021,131.93908 75.9335073,132.042234 C75.2450861,132.1196 74.5989537,132.182213 73.9965852,132.230075 L72.7490495,132.3256 C72.0431224,132.369417 71.560831,132.35189 71.3038205,132.273019 C70.9716299,132.169865 70.7041292,131.734521 70.4995697,130.970483 L69.6586032,126.99119 C69.5554493,126.328557 69.6463646,125.781317 69.926104,125.345973 C70.2058434,124.914125 70.9331658,124.466542 72.1080712,124.00672 C72.9752633,123.699007 73.9823251,123.433255 75.1310049,123.20247 C76.2796847,122.973433 77.4528418,122.781112 78.6522244,122.629004 C79.8533554,122.475147 81.038751,122.361503 82.2136564,122.284575 C83.3850651,122.207646 84.4061138,122.170931 85.2750543,122.170931 C88.8452282,122.170931 91.7160536,122.503121 93.8857822,123.165754 C96.0537624,123.828386 97.7112183,124.772507 98.8598981,125.996367 C100.008578,127.220226 100.760378,128.729071 101.118794,130.514158 C101.475461,132.299245 101.655544,134.339594 101.655544,136.636953 L101.655544,148.728688 C101.655544,149.546926 101.692259,150.183333 101.770936,150.643155 C101.846116,151.102976 101.985986,151.447405 102.190545,151.676442 C102.393356,151.907227 102.673096,152.075071 103.029763,152.172979 C103.316496,152.256901 103.683794,152.32292 104.132552,152.371035 L104.484408,152.403764 C105.148789,152.456216 105.580637,152.571608 105.785196,152.748194 C105.989756,152.928276 106.09291,153.246479 106.09291,153.704553 L106.09291,158.605237 C106.09291,159.55173 105.453719,160.192196 104.178139,160.523835 L103.872478,160.594883 C102.444059,160.951551 100.860035,161.131633 99.1256505,161.131633 C97.2391581,161.131633 95.5782055,160.809933 94.1497862,160.175274 C92.7231154,159.537119 91.751021,158.197866 91.242245,156.155769 L91.08664,156.078841 Z M89.9397085,144.751144 L83.0528746,144.751144 C81.622707,144.751144 80.5002527,145.083334 79.6837634,145.745967 C78.8655257,146.4086 78.4581552,147.635956 78.4581552,149.421043 C78.4581552,150.595949 78.7011788,151.41069 79.1854776,151.868763 C79.6697764,152.326836 80.577181,152.559369 81.9041947,152.559369 C83.0773518,152.559369 84.4410813,152.27963 86.0006283,151.716655 C87.5566786,151.158924 88.8714537,150.545246 89.9414569,149.880865 L89.9397085,144.751144 Z M140.233353,148.763656 C140.233353,151.157176 139.761293,153.155564 138.817172,154.757072 C137.871303,156.362077 136.610728,157.64713 135.028452,158.613979 C133.446176,159.580828 131.645354,160.280176 129.632979,160.713773 C127.617107,161.143872 125.512068,161.36067 123.317862,161.36067 C122.399967,161.36067 121.405144,161.323954 120.333393,161.248774 C119.261641,161.171846 118.177651,161.058202 117.081422,160.907842 C115.983445,160.755733 114.936171,160.579148 113.943096,160.374589 C112.948273,160.173526 112.067094,159.946238 111.301307,159.690975 C110.024996,159.234651 109.208507,158.767835 108.853588,158.285285 C108.534996,157.859459 108.459535,157.222275 108.625978,156.37496 L109.540697,152.403764 C109.694554,151.692177 109.923591,151.256833 110.231304,151.104725 C110.499023,150.9701 110.980918,150.953272 111.679331,151.05424 L111.991914,151.104725 C113.777001,151.41069 115.714196,151.653713 117.806996,151.832047 C119.899796,152.012129 121.609703,152.099548 122.936717,152.099548 C124.873912,152.099548 126.251629,151.88275 127.069867,151.447405 C127.886356,151.012061 128.293726,150.284739 128.293726,149.260193 C128.293726,148.134242 127.987761,147.380694 127.37758,146.996053 C126.763902,146.613159 125.641447,146.319433 124.008469,146.114873 C121.915668,145.80716 119.964486,145.446996 118.151425,145.041374 C116.340113,144.632255 114.745598,144.016828 113.36963,143.196842 C111.991914,142.378604 110.907924,141.278879 110.115912,139.897666 C109.323899,138.516452 108.930516,136.699895 108.930516,134.449741 C108.930516,132.404147 109.322151,130.613815 110.108918,129.078745 C110.892188,127.545424 111.970933,126.265616 113.339908,125.244567 C114.707134,124.220022 116.345358,123.454235 118.247586,122.940214 C120.148065,122.42969 122.223382,122.174427 124.46829,122.174427 C125.335482,122.174427 126.29359,122.212892 127.340864,122.28982 C128.38639,122.366748 129.445903,122.47165 130.515906,122.597533 C131.587658,122.728661 132.620945,122.894756 133.615768,123.099316 C134.610591,123.307372 135.516248,123.562634 136.332737,123.872096 C137.353786,124.230512 138.107334,124.604663 138.589884,124.991053 C139.074183,125.377443 139.191324,126.05756 138.934313,127.036647 L138.093347,130.972231 C137.890536,131.689063 137.673738,132.122659 137.442953,132.278264 C137.239364,132.413472 136.782975,132.449216 136.075012,132.38427 L133.718212,132.103919 C133.47273,132.073705 133.222385,132.042671 132.967122,132.010763 C131.944325,131.883132 130.939012,131.77823 129.944189,131.70305 L127.81205,131.553073 C127.587275,131.538703 127.366653,131.525153 127.150292,131.512478 L126.170057,131.464111 C126.017025,131.45811 125.869127,131.453131 125.726306,131.449159 L124.92986,131.437298 C122.990917,131.386595 121.777547,131.603393 121.293248,132.085943 C120.808949,132.566745 120.565926,133.21714 120.565926,134.03188 C120.565926,134.99873 121.013509,135.62115 121.912172,135.900889 C122.809086,136.182377 123.949024,136.448129 125.331986,136.701643 C127.328625,136.956905 129.22386,137.275109 131.017689,137.656254 C132.809769,138.039147 134.385051,138.661567 135.741787,139.527011 C137.098523,140.392455 138.18601,141.549876 139.007745,143.001024 C139.824234,144.450424 140.233353,146.370136 140.233353,148.763656 Z M201.739301,160.175274 C201.559219,160.507465 201.137862,160.671812 200.476978,160.671812 L192.05857,160.671812 C191.394189,160.671812 190.946606,160.531942 190.71757,160.250454 C190.488533,159.972463 190.373141,159.573835 190.373141,159.065059 L190.373141,138.934313 C190.373141,136.586251 190.016473,135.031949 189.301389,134.264414 C188.588054,133.498627 187.516302,133.117482 186.087883,133.117482 C185.169988,133.117482 184.045785,133.360506 182.718772,133.844805 C181.391758,134.327355 180.244827,134.827389 179.274481,135.337914 L179.274481,159.065059 C179.274481,159.472429 179.185314,159.841335 179.00698,160.175274 C178.828646,160.509213 178.382811,160.671812 177.667728,160.671812 L169.24932,160.671812 C168.633894,160.671812 168.216033,160.531942 167.985248,160.250454 C167.756211,159.972463 167.640819,159.573835 167.640819,159.065059 L167.640819,138.703528 C167.640819,136.560025 167.29639,135.09489 166.602287,134.302878 C165.906435,133.510866 164.866154,133.115734 163.479696,133.115734 C162.553059,133.115734 161.43585,133.344771 160.12632,133.804592 C158.813293,134.264414 157.620904,134.774938 156.542159,135.336165 L156.542159,159.06331 C156.542159,159.470681 156.439005,159.839587 156.236194,160.173526 C156.035131,160.505716 155.578806,160.670063 154.868968,160.670063 L146.506509,160.670063 C145.894579,160.670063 145.478466,160.530194 145.24943,160.248706 C145.020393,159.970715 144.910246,159.572086 144.910246,159.06331 L144.910246,124.61865 C144.910246,124.109874 145.020393,123.700755 145.24943,123.39479 C145.478466,123.088825 145.894579,122.934969 146.506509,122.934969 L154.868968,122.934969 C155.578806,122.934969 156.035131,123.116799 156.236194,123.471719 C156.439005,123.828386 156.542159,124.21128 156.542159,124.61865 L156.542159,126.37926 L156.696016,126.456188 C158.328994,125.130923 160.114081,124.097636 162.051276,123.358075 C163.99022,122.618514 165.955389,122.247859 167.946784,122.247859 C170.242395,122.247859 172.256519,122.667468 173.992651,123.510183 C175.725287,124.351149 177.003346,125.667673 177.818087,127.45276 C179.604923,125.973638 181.633033,124.735791 183.902419,123.740968 C186.171805,122.746145 188.456926,122.247859 190.752537,122.247859 C193.457267,122.247859 195.564055,122.695442 197.067654,123.587111 C198.571253,124.482277 199.695456,125.643196 200.435017,127.069867 C201.174578,128.498286 201.622161,130.106787 201.776017,131.891874 C201.928126,133.676961 202.005246,135.463796 202.005246,137.248883 L202.005246,159.065059 C202.008551,159.474177 201.919384,159.843084 201.739301,160.175274 Z" fill="#FFFFFF"/>
  </g>
</svg>

<svg width="256" height="256" xmlns="http://www.w3.org/2000/svg" preserveAspectRatio="xMidYMid"><path d="M230.45 0c-14.117 0-25.557 11.443-25.557 25.554 0 4.962 1.438 9.578 3.885 13.498l-16.27 16.27c-20.44-18.498-47.544-29.768-77.283-29.768C51.59 25.554 0 77.145 0 140.78c0 63.637 51.59 115.223 115.225 115.223 63.635 0 115.224-51.586 115.224-115.223 0-29.738-11.271-56.843-29.77-77.285l16.273-16.27c3.92 2.445 8.537 3.884 13.5 3.884C244.56 51.108 256 39.667 256 25.556 256 11.445 244.56 0 230.45 0Z" fill="#113B6A"/><path d="M61.574 160.175c-.178.332-.624.497-1.34.497h-8.418c-1.124 0-1.683-.537-1.683-1.607 0-2.246.004-4.48.015-6.702l.022-3.325c.026-3.315.036-6.66.036-10.027 0-2.143-.37-3.66-1.11-4.553-.74-.891-1.928-1.339-3.558-1.339-1.224 0-2.553.294-3.98.88-1.428.587-2.6 1.035-3.52 1.34v23.728c0 .407-.091.776-.27 1.11-.178.332-.624.497-1.339.497h-8.341c-.663 0-1.11-.14-1.34-.422-.23-.278-.344-.676-.344-1.185v-34.445c0-.509.114-.918.344-1.224.23-.306.677-.46 1.34-.46h8.341c.713 0 1.161.182 1.34.537.18.357.269.74.269 1.147v1.838c.032 0 .06.006.083.017l.028.021c.028.026.065.037.116.037 1.685-1.275 3.649-2.308 5.894-3.098 2.243-.79 4.285-1.187 6.122-1.187 2.705 0 4.836.447 6.39 1.339 1.559.895 2.718 2.066 3.485 3.521.766 1.455 1.236 3.075 1.415 4.862.18 1.785.27 3.57.27 5.356v21.739c.004.407-.087.776-.267 1.108Zm29.513-4.096a18.65 18.65 0 0 1-3.29 2.372 22.789 22.789 0 0 1-3.599 1.646 19.787 19.787 0 0 1-3.598.917c-1.175.177-2.245.268-3.214.268-2.246 0-4.07-.32-5.474-.958-1.404-.637-2.488-1.467-3.252-2.488-.766-1.02-1.29-2.206-1.568-3.56a20.189 20.189 0 0 1-.41-3.512l-.011-.736c-.053-2.347.267-4.334.958-5.97.689-1.632 1.67-2.947 2.946-3.942 1.274-.993 2.832-1.71 4.67-2.143 1.835-.434 3.878-.65 6.122-.65h8.803v-1.225c0-.816-.092-1.505-.267-2.066a2.706 2.706 0 0 0-.995-1.378c-.486-.357-1.16-.624-2.028-.804-.76-.156-1.733-.245-2.922-.265l-.522-.004c-.338 0-.726.01-1.164.029l-3.581.203c-.92.05-1.84.126-2.757.23-.689.077-1.335.14-1.937.187l-1.248.096c-.706.043-1.188.026-1.445-.053-.332-.103-.6-.538-.804-1.303l-.841-3.979c-.104-.662-.013-1.21.267-1.645.28-.432 1.007-.88 2.182-1.34.867-.307 1.874-.573 3.023-.804a50.473 50.473 0 0 1 3.521-.573 57.643 57.643 0 0 1 3.562-.344 47.395 47.395 0 0 1 3.061-.114c3.57 0 6.441.332 8.61.995 2.169.662 3.826 1.607 4.975 2.83 1.149 1.224 1.9 2.733 2.259 4.518.356 1.785.537 3.826.537 6.123v12.092c0 .818.036 1.454.115 1.914.075.46.215.804.42 1.033.202.231.482.4.839.497.286.084.654.15 1.103.198l.351.033c.665.052 1.097.168 1.301.344.205.18.308.498.308.957v4.9c0 .947-.64 1.587-1.915 1.919l-.306.07c-1.428.358-3.012.538-4.746.538-1.887 0-3.548-.322-4.976-.957-1.427-.638-2.399-1.977-2.908-4.02l-.155-.076ZM89.94 144.75h-6.887c-1.43 0-2.553.332-3.37.995-.817.663-1.225 1.89-1.225 3.675 0 1.175.243 1.99.727 2.448.485.458 1.392.69 2.72.69 1.172 0 2.536-.28 4.096-.842 1.556-.558 2.87-1.172 3.94-1.836l-.001-5.13Zm50.293 4.013c0 2.393-.472 4.392-1.416 5.993a10.98 10.98 0 0 1-3.789 3.857c-1.582.967-3.383 1.666-5.395 2.1-2.016.43-4.12.647-6.315.647-.918 0-1.913-.037-2.985-.112a50.576 50.576 0 0 1-6.39-.874 22.543 22.543 0 0 1-2.642-.684c-1.276-.456-2.092-.923-2.447-1.406-.319-.426-.394-1.063-.228-1.91l.915-3.971c.154-.712.383-1.147.69-1.3.268-.134.75-.15 1.448-.05l.313.05c1.785.307 3.722.55 5.815.728 2.093.18 3.803.268 5.13.268 1.937 0 3.315-.217 4.133-.653.816-.435 1.224-1.162 1.224-2.187 0-1.126-.306-1.88-.916-2.264-.614-.383-1.737-.677-3.37-.881a80.49 80.49 0 0 1-5.857-1.074c-1.81-.409-3.405-1.024-4.781-1.844a8.963 8.963 0 0 1-3.254-3.3c-.792-1.38-1.185-3.197-1.185-5.447 0-2.046.391-3.836 1.178-5.371a10.917 10.917 0 0 1 3.23-3.834c1.368-1.025 3.006-1.79 4.909-2.305 1.9-.51 3.975-.766 6.22-.766.867 0 1.826.039 2.873.116a73.16 73.16 0 0 1 3.175.308c1.072.13 2.105.297 3.1.501.995.208 1.9.464 2.717.773 1.02.359 1.774.733 2.257 1.12.484.385.601 1.066.344 2.045l-.84 3.935c-.203.717-.42 1.15-.651 1.306-.204.135-.66.171-1.368.106l-2.357-.28-.75-.093a62.37 62.37 0 0 0-3.024-.308l-2.132-.15c-.225-.014-.445-.028-.662-.04l-.98-.049a39.01 39.01 0 0 0-.444-.015l-.796-.012c-1.94-.05-3.152.166-3.637.649-.484.48-.727 1.131-.727 1.946 0 .967.448 1.59 1.346 1.869.897.281 2.037.547 3.42.8 1.997.256 3.892.574 5.686.955 1.792.383 3.367 1.006 4.724 1.871 1.357.865 2.444 2.023 3.266 3.474.816 1.45 1.225 3.37 1.225 5.763Zm61.506 11.411c-.18.332-.601.497-1.262.497h-8.418c-.665 0-1.112-.14-1.341-.422-.23-.278-.345-.676-.345-1.185v-20.13c0-2.349-.357-3.903-1.072-4.67-.713-.766-1.785-1.148-3.213-1.148-.918 0-2.042.244-3.37.728-1.326.482-2.473.982-3.444 1.493v23.727c0 .407-.089.776-.267 1.11-.178.334-.624.497-1.34.497h-8.418c-.615 0-1.033-.14-1.264-.422-.229-.278-.344-.676-.344-1.185v-20.361c0-2.144-.345-3.61-1.039-4.401-.696-.792-1.736-1.187-3.122-1.187-.927 0-2.044.229-3.354.689-1.313.46-2.505.97-3.584 1.531v23.727c0 .408-.103.777-.306 1.11-.2.333-.657.497-1.367.497h-8.362c-.612 0-1.029-.14-1.258-.421-.229-.278-.339-.677-.339-1.186V124.62c0-.51.11-.918.34-1.224.228-.306.645-.46 1.257-.46h8.362c.71 0 1.166.182 1.367.537.203.356.306.74.306 1.147v1.76l.154.077a19.475 19.475 0 0 1 5.355-3.098c1.94-.74 3.904-1.11 5.896-1.11 2.295 0 4.31.42 6.046 1.262 1.732.841 3.01 2.158 3.825 3.943 1.787-1.48 3.815-2.717 6.084-3.712 2.27-.995 4.555-1.493 6.85-1.493 2.705 0 4.812.447 6.316 1.34 1.503.894 2.627 2.055 3.367 3.482.74 1.428 1.187 3.037 1.341 4.822a63.09 63.09 0 0 1 .23 5.357v21.816a2.25 2.25 0 0 1-.267 1.11Z" fill="#FFF"/></svg>
